public/images/email-icon.svg

<svg width="135px" height="135px" viewBox="0 0 135 135" version="1.1" xmlns="http://www.w3.org/2000/svg" xmlns:xlink="http://www.w3.org/1999/xlink">
    <g id="Invite" stroke="none" stroke-width="1" fill="none" fill-rule="evenodd">
        <g id="Invite-People" transform="translate(-733.000000, -230.000000)" fill-rule="nonzero">
            <g id="shopping-color_newsletter" transform="translate(733.000000, 230.000000)">
                <path d="M67.4998091,105 C66.9510125,105 66.4051506,104.847467 65.9238531,104.5424 L1.35954601,63.4757333 C0.467384676,62.9096 -0.0491297801,61.9034667 0.00369556199,60.8474667 C0.0594556454,59.7944 0.675751304,58.8469333 1.62367272,58.3746667 L67.4998091,17 L133.375945,58.3746667 C134.320932,58.8469333 134.940163,59.7914667 134.995923,60.8474667 C135.051683,61.9034667 134.532234,62.9066667 133.640072,63.4757333 L69.0757651,104.5424 C68.5944676,104.847467 68.0486057,105 67.4998091,105 Z" id="Shape" fill="#0665ff"></path>
                <path d="M111,109 L23,109 L23,2.94594595 C23,1.31978378 24.3141333,0 25.9333333,0 L108.066667,0 C109.685867,0 111,1.31978378 111,2.94594595 L111,109 Z" id="Shape" fill="#FFFFFF"></path>
                <path d="M132.072406,135 C131.826489,135 131.577643,134.96788 131.334653,134.90656 L64,117.38656 L64.7377536,97.04 L135,62 L135,132.08 C135,132.9852 134.578427,133.83784 133.861166,134.39264 C133.34591,134.78976 132.713549,135 132.072406,135 Z" id="Shape" fill="#79b8ff"></path>
                <path d="M132.063848,135 L2.93475217,135 C1.31183422,135 0,133.69184 0,132.08 L0,62 L133.469594,129.51624 C134.64643,130.15572 135.242184,131.50768 134.907623,132.80124 C134.575996,134.0948 133.40503,135 132.063848,135 Z" id="Shape" fill="#2088ff"></path>
                <path d="M90.1111111,26 L43.8888889,26 C42.2942222,26 41,24.8825 41,23.5 C41,22.1175 42.2942222,21 43.8888889,21 L90.1111111,21 C91.7057778,21 93,22.1175 93,23.5 C93,24.8825 91.7057778,26 90.1111111,26 Z" id="Shape" fill="#F0F2F4"></path>
                <path d="M90.1111111,46 L43.8888889,46 C42.2942222,46 41,44.8825 41,43.5 C41,42.1175 42.2942222,41 43.8888889,41 L90.1111111,41 C91.7057778,41 93,42.1175 93,43.5 C93,44.8825 91.7057778,46 90.1111111,46 Z" id="Shape" fill="#F0F2F4"></path>
                <path d="M70.0909091,67 L43.9090909,67 C42.3032727,67 41,65.8825 41,64.5 C41,63.1175 42.3032727,62 43.9090909,62 L70.0909091,62 C71.6967273,62 73,63.1175 73,64.5 C73,65.8825 71.6967273,67 70.0909091,67 Z" id="Shape" fill="#F0F2F4"></path>
            </g>
        </g>
    </g>
</svg>

<?xml version="1.0" encoding="UTF-8"?>
<svg version="1.1" viewBox="0 0 135 135" xmlns="http://www.w3.org/2000/svg">
  <g fill="none" fill-rule="evenodd">
    <g transform="translate(-733 -230)" fill-rule="nonzero">
      <g transform="translate(733 230)">
        <path id="Shape" d="m67.5 105c-0.5488 0-1.0947-0.15253-1.576-0.4576l-64.564-41.067c-0.89216-0.56613-1.4087-1.5723-1.3559-2.6283 0.05576-1.0531 0.67206-2.0005 1.62-2.4728l65.876-41.375 65.876 41.375c0.94499 0.47227 1.5642 1.4168 1.62 2.4728s-0.46369 2.0592-1.3559 2.6283l-64.564 41.067c-0.4813 0.30507-1.0272 0.4576-1.576 0.4576z" fill="#0665ff"/>
        <path id="Shape" d="m111 109h-88v-106.05c0-1.6262 1.3141-2.9459 2.9333-2.9459h82.133c1.6192 0 2.9333 1.3198 2.9333 2.9459v106.05z" fill="#fff"/>
        <path id="Shape" d="m132.07 135c-0.24592 0-0.49476-0.03212-0.73775-0.09344l-67.335-17.52 0.73775-20.347 70.262-35.04v70.08c0 0.9052-0.42157 1.7578-1.1388 2.3126-0.51526 0.39712-1.1476 0.60736-1.7888 0.60736z" fill="#79b8ff"/>
        <path id="Shape" d="m132.06 135h-129.13c-1.6229 0-2.9348-1.3082-2.9348-2.92v-70.08l133.47 67.516c1.1768 0.63948 1.7726 1.9914 1.438 3.285-0.33163 1.2936-1.5026 2.1988-2.8438 2.1988z" fill="#2088ff"/>
        <path id="Shape" d="m90.111 26h-46.222c-1.5947 0-2.8889-1.1175-2.8889-2.5s1.2942-2.5 2.8889-2.5h46.222c1.5947 0 2.8889 1.1175 2.8889 2.5s-1.2942 2.5-2.8889 2.5z" fill="#F0F2F4"/>
        <path id="a" d="m90.111 46h-46.222c-1.5947 0-2.8889-1.1175-2.8889-2.5s1.2942-2.5 2.8889-2.5h46.222c1.5947 0 2.8889 1.1175 2.8889 2.5s-1.2942 2.5-2.8889 2.5z" fill="#F0F2F4"/>
        <path d="m70.091 67h-26.182c-1.6058 0-2.9091-1.1175-2.9091-2.5s1.3033-2.5 2.9091-2.5h26.182c1.6058 0 2.9091 1.1175 2.9091 2.5s-1.3033 2.5-2.9091 2.5z" fill="#F0F2F4"/>
      </g>
    </g>
  </g>
</svg>
